modules/feathericon/icons/bookmark.svg

<?xml version="1.0" encoding="UTF-8"?>
<svg width="24px" height="24px" viewBox="0 0 24 24" version="1.1" xmlns="http://www.w3.org/2000/svg" xmlns:xlink="http://www.w3.org/1999/xlink">
    <!-- Generator: sketchtool 52.2 (67145) - http://www.bohemiancoding.com/sketch -->
    <title>bookmark</title>
    <desc>Created with sketchtool.</desc>
    <g id="web-app" stroke="none" stroke-width="1" fill="none" fill-rule="evenodd">
        <g id="bookmark" fill="#000000" fill-rule="nonzero">
            <path d="M18,4 L6,4 L6,18.763932 L12,15.763932 L18,18.763932 L18,4 Z M6,2 L18,2 C19.1045695,2 20,2.8954305 20,4 L20,22 L12,18 L4,22 L4,4 C4,2.8954305 4.8954305,2 6,2 Z M14,6 L16,6 L16,12 L14,12 L14,6 Z" id="shape"></path>
        </g>
    </g>
</svg>

<svg width="24" height="24" viewBox="0 0 24 24" xmlns="http://www.w3.org/2000/svg"><path d="M18 4H6v14.764l6-3 6 3V4zM6 2h12a2 2 0 0 1 2 2v18l-8-4-8 4V4a2 2 0 0 1 2-2zm8 4h2v6h-2V6z" fill="#000" fill-rule="nonzero"/></svg>
